src/assets/icons/level_up_icon.svg

<svg fill="none" height="24" viewBox="0 0 24 24" width="24" xmlns="http://www.w3.org/2000/svg"><path d="m7.59535 5.48242c1.97889.00035 3.61965 1.44438 3.92875 3.33594.6887-.56941 1.5727-.91103 2.5361-.91113 2.1993.00026 3.9823 1.78313 3.9824 3.98237-.0003 2.1992-1.7832 3.9822-3.9824 3.9825-.2549-.0001-.5045-.0255-.7461-.0713.0339.0609.0677.1235.0996.1875h2.2627c.747.0001 1.8136.2624 2.7158 1.0303.9273.7897 1.6179 2.0607 1.668 3.9433.0138.536-.4196.9714-.9473.9717h-10.10544c-.51275-.0002-.96618-.42-.94629-.9766l.02051-.33c.02862-.3424.08749-.7237.18066-1.1172h-5.31543c-.51283 0-.96608-.42-.94628-.9766l.0205-.3301c.06722-.8045.28537-1.8267.78321-2.709.58614-1.0386 1.59797-1.9296 3.1748-1.9296h3.63672c.25977 0 .56194.0336.88374.1093-.177-.3527-.3033-.7357-.3691-1.1386-.68861.5693-1.57184.9119-2.53515.9121-2.19931-.0002-3.98219-1.7832-3.98242-3.98246.00025-2.19927 1.78312-3.9823 3.98242-3.98242zm4.44435 12.00588c-.8975.0002-1.4725.4661-1.8682 1.167-.30599.5423-.48066 1.1952-.56052 1.7783h8.90822c-.1414-1.1567-.6063-1.8533-1.0996-2.2734-.5944-.5057-1.3015-.6718-1.7432-.6719zm-6.06056-2.4238c-.89772 0-1.47248.4658-1.86816 1.1669-.30609.5425-.48071 1.1952-.56055 1.7784h5.26758c.01619-.0302.03005-.062.04687-.0918.53424-.9466 1.42272-1.7687 2.76952-1.9073-.6389-.7188-1.4924-.946-2.01854-.9462zm8.08106-5.65727c-1.3709.00024-2.4823 1.11157-2.4824 2.48237.0003 1.3708 1.1116 2.4822 2.4824 2.4825 1.3707-.0003 2.4821-1.1117 2.4824-2.4825-.0001-1.3708-1.1116-2.48211-2.4824-2.48237zm-6.46485-2.42481c-1.37087.00012-2.48217 1.11158-2.48242 2.48242.00023 1.37086 1.11154 2.48226 2.48242 2.48246 1.37066-.0004 2.48215-1.1118 2.48245-2.48246-.0003-1.37068-1.1118-2.48203-2.48245-2.48242zm11.31345-3.98242c1.7853 0 3.2323 1.44718 3.2325 3.23242 0 1.78534-1.4471 3.23242-3.2325 3.23242-1.7852-.00016-3.2324-1.44718-3.2324-3.23242.0001-1.78513 1.4473-3.23225 3.2324-3.23242zm0 1.0166c-.3311.00023-.5995.26843-.5996.59961v1.0166h-1.0176c-.331.00033-.5994.26855-.5996.59961.0001.33113.2686.59928.5996.59961h1.0176v1.01758c.0003.331.2686.59938.5996.59961.331-.00026.5994-.26863.5996-.59961v-1.01758h1.0166l.1202-.01172c.2735-.05578.4794-.29784.4794-.58789-.0001-.28999-.2059-.53211-.4794-.58789l-.1202-.01172h-1.0166v-1.0166c0-.33116-.2685-.59935-.5996-.59961z" fill="#000"/></svg>

<svg width="24" height="24" viewBox="0 0 24 24" fill="none" xmlns="http://www.w3.org/2000/svg">
<path d="M7.59535 5.48242C9.57424 5.48277 11.215 6.9268 11.5241 8.81836C12.2128 8.24895 13.0968 7.90733 14.0602 7.90723C16.2595 7.90749 18.0425 9.69036 18.0426 11.8896C18.0423 14.0888 16.2594 15.8718 14.0602 15.8721C13.8053 15.872 13.5557 15.8466 13.3141 15.8008C13.348 15.8617 13.3818 15.9243 13.4137 15.9883H15.6764C16.4234 15.9884 17.49 16.2507 18.3922 17.0186C19.3195 17.8083 20.0101 19.0793 20.0602 20.9619C20.074 21.4979 19.6406 21.9333 19.1129 21.9336H9.00746C8.49471 21.9334 8.04128 21.5136 8.06117 20.957L8.08168 20.627C8.1103 20.2846 8.16917 19.9033 8.26234 19.5098H2.94691C2.43408 19.5098 1.98083 19.0898 2.00063 18.5332L2.02113 18.2031C2.08835 17.3986 2.3065 16.3764 2.80434 15.4941C3.39048 14.4555 4.40231 13.5645 5.97914 13.5645H9.61586C9.87563 13.5645 10.1778 13.5981 10.4996 13.6738C10.3226 13.3211 10.1963 12.9381 10.1305 12.5352C9.44189 13.1045 8.55866 13.4471 7.59535 13.4473C5.39604 13.4471 3.61316 11.6641 3.61293 9.46484C3.61318 7.26557 5.39605 5.48254 7.59535 5.48242ZM12.0397 17.4883C11.1422 17.4885 10.5672 17.9544 10.1715 18.6553C9.86551 19.1976 9.69084 19.8505 9.61098 20.4336H18.5192C18.3778 19.2769 17.9129 18.5803 17.4196 18.1602C16.8252 17.6545 16.1181 17.4884 15.6764 17.4883H12.0397ZM5.97914 15.0645C5.08142 15.0645 4.50666 15.5303 4.11098 16.2314C3.80489 16.7739 3.63027 17.4266 3.55043 18.0098H8.81801C8.8342 17.9796 8.84806 17.9478 8.86488 17.918C9.39912 16.9714 10.2876 16.1493 11.6344 16.0107C10.9955 15.2919 10.142 15.0647 9.61586 15.0645H5.97914ZM14.0602 9.40723C12.6893 9.40747 11.5779 10.5188 11.5778 11.8896C11.5781 13.2604 12.6894 14.3718 14.0602 14.3721C15.4309 14.3718 16.5423 13.2604 16.5426 11.8896C16.5425 10.5188 15.431 9.40749 14.0602 9.40723ZM7.59535 6.98242C6.22448 6.98254 5.11318 8.094 5.11293 9.46484C5.11316 10.8357 6.22447 11.9471 7.59535 11.9473C8.96601 11.9469 10.0775 10.8355 10.0778 9.46484C10.0775 8.09416 8.966 6.98281 7.59535 6.98242ZM18.9088 3C20.6941 3 22.1411 4.44718 22.1413 6.23242C22.1413 8.01776 20.6942 9.46484 18.9088 9.46484C17.1236 9.46468 15.6764 8.01766 15.6764 6.23242C15.6765 4.44729 17.1237 3.00017 18.9088 3ZM18.9088 4.0166C18.5777 4.01683 18.3093 4.28503 18.3092 4.61621V5.63281H17.2916C16.9606 5.63314 16.6922 5.90136 16.692 6.23242C16.6921 6.56355 16.9606 6.8317 17.2916 6.83203H18.3092V7.84961C18.3095 8.18061 18.5778 8.44899 18.9088 8.44922C19.2398 8.44896 19.5082 8.18059 19.5084 7.84961V6.83203H20.525L20.6452 6.82031C20.9187 6.76453 21.1246 6.52247 21.1246 6.23242C21.1245 5.94243 20.9187 5.70031 20.6452 5.64453L20.525 5.63281H19.5084V4.61621C19.5084 4.28505 19.2399 4.01686 18.9088 4.0166Z" fill="black"/>
</svg>
